X:1
T:Star Spangled Banner
T:(U.S.A. National Anthem)
T:Music - John Stafford Smith Lyrics - Francis S. Key Arr. - D.Jacobs
T:Star Spangled Banner (U.S.A. National Anthem)
T:Copyright © 
T:Copyright © 
T:Copyright © 
T:Copyright © 
T:Copyright © 
C:Music - John Stafford Smith
C:Lyrics - Francis S. Key
C:Arr. - D.Jacobs
Z:Copyright ©
%%score [ 1 2 3 4 ]
L:1/8
M:3/4
K:C
V:1 treble nm="SOPRANO" snm="S."
V:2 treble nm="ALTO" snm="A."
V:3 treble-8 transpose=-12 nm="TENOR" snm="T."
V:4 bass nm="BASS" snm="B."
V:1
S"^Andante Con Spirito""^m"!f! z2 z2!<(! !tenuto!G->!tenuto!E |: C2 E2!<)! G2 | c4!sfz! e>d | %3
w: Oh *|say can you|see by the|
w: ||:stripes and bright|stars through the|
!>(! c2 E2 ^F2!>)! | G4 GG | !tenuto!e3 d c2 ||1 B4 A>B"^dim.""^dim." |!>(!!>(! c2 c2 G2 | %8
w: dawn's ear- ly-|light, what so|proud- ly we|hailed at the|twi- light's last|
w: pe- ri- lous|fight, O'er the|ram- parts we|||
 E2 !fermata!C2!>)!!>)!!mf! !tenuto!G>!tenuto!E :|2 B4 A>B | c2 c2 G2 | %11
w: glea- ming? Whose broad:||watched were so|ga llant ly|
w: |||
 E2 !fermata!C2!mf!"^dolce" e>e || e2 f2 g2 | g3 f e2 | d2 e2 f2 | f3"^m"!f! z f2 | e3 d c2 | %17
w: strea- ming. And the|ro- ckets' red|glare, the bombs|bur- sting in|air gave|proof through the|
w: ||||||
 B4 A>B | c2 E2 ^F2 | G3!f! z G2 | c2 c2 B2 | A2 A2 A2 | d2 f"^rall."e dc | %23
w: night that our|flag was still|there. Oh|say does that|star span- gled|ban- ner _ yet _|
w: ||||||
 (!fermata!c2 !fermata!B3/2) z/!ff! GG | (c3 d)"^poco rall." ef | %25
w: wave _ o'er the|land _ of the|
w: ||
 !fermata!g3 z!fff! c>d"^molto rall." | e3 f !fermata!d2 | !fermata!c6!fine! |] %28
w: free and the|home of the|brave?|
w: |||
V:2
"^m"!f! z2 z2!<(! !tenuto!G->!tenuto!E |: C2 E2!<)! G2 | c4!sfz! c>c |!>(! A2 B2 A2!>)! | %4
w: Oh *|say can you|see by the|dawn's ear- ly|
w: ||:stripes and bright|stars through the|pe- ri- lous|
 G3- _G FD | !tenuto!=G4 GG ||1 G4 FF | G2 G2 F2 | E2 !fermata!E2!mf! !tenuto!G>!tenuto!E :|2 %9
w: li- ght, what so|proud- ly we|hailed at the|twi- light's last|gleaming? _ Whose broad:||
w: fi- ght, O'er the|ram- parts we||||
 G4 FF | E2 E2 F2 | E2 !fermata!E2 z2 || z2 z2!mp! !tenuto!C!tenuto!C | C2 D2 E2 | F2 z2 FE | %15
w: watched were so|ga- llant- ly|* streaming.|and the|ro- ckets' red|glare, the bombs|
w: ||||||
 D2 E2 F2 | E2!f! F2 G2"^m" | G4 G->F | E2 C2 A,2 | B,3!f! z B,2 | C2 E2 ^G2 | A2 A2 =G2 | %22
w: bur- sting in|air, through the|night, our _|flag was still|there. Oh|say does that|star span- gled|
w: |||||||
 A2 A2 A2 | (!fermata!A2 !fermata!G3/2) z/!ff! GG | c4 cB | !fermata!c3 z!fff! c>c | %26
w: ban- ner yet|wave _ o'er the|land of the|free and the|
w: ||||
 c3 c !fermata!B2 | !fermata!G6 |] %28
w: home of the|brave?|
w: ||
V:3
"^m"!f! z2 z2!<(! !tenuto!G->!tenuto!E |: C2 E2!<)! G2 | A4!sfz! ^G>A |!>(! e2 d2 c2!>)! | %4
w: Oh *|say can you|see by the|dawn's ear- ly|
w: ||:stripes and bright|stars through the|pe- ri- lous|
 (d4 B2) | !tenuto!c4 cA ||1 G2 G2 G2"^dim." |!>(! E2 E2 G2 | %8
w: li- ght,|proud- ly we|hailed at the|twi- light's last|
w: fi- ght,|ram- parts we|||
 c2 !fermata!G2!>)!!mf! !tenuto!G>!tenuto!E :|2 G2 G2 F2 | G2 G2 B2 | c2 !fermata!G2!mp! c>c || %12
w: glea- ming? Whose broad:||watched were so|ga- llant- ly|strea- ming. And the|
w: ||||
 c2 d2 e2 | e4 de | f2 f2 ^c2 | d3"^m"!f! z B2 | c3 c c2 | F4 F>F | G2 G2 D2 | F2-!f! D2 F2 | %20
w: ro- ckets' red|glare, the bombs|bur- sting in|air gave|proof through the|night that our|flag was still|there. * Oh|
w: ||||||||
 E2 GA B2 | c2 A2 G2 | F2 FG Ac | (!fermata!c2 !fermata!B3/2) z/!ff! GG | (c3 B) cd | %25
w: say does _ that|star span- gled|ban- ner _ yet _|wave _ o'er the|land _ of the|
w: |||||
 !fermata!e3 z!fff! f>f | g3 ^f !fermata!=f2 | !fermata!e6 |] %28
w: free and the|home of the|brave?|
w: |||
V:4
"^m"!f! z2 z2!<(! !tenuto!G,->!tenuto!E, |: C,2 E,2!<)! G,2 | A,2- A,,2!sfz! ^G,,>A,, | %3
w: Oh *|say can you|see * by the|
w: ||:stripes and bright|stars * through the|
!>(! A,,2 A,,2 D,2!>)! | (B,,2 G,,2) z2 | !tenuto!E,4 E,E, ||1 F,4 D,>B,,"^dim." | %7
w: dawn's ear- ly|li- ght,|proud- ly we|hailed at the|
w: pe- ri- lous|fi- ght,|ram- parts we||
!>(! C,2 G,2 E,2 | C,2 !fermata!C,2!>)!!mf! !tenuto!G,>!tenuto!E, :|2 F,4 D,>B,, | C,2 G,2 E,2 | %11
w: twi- light's first|glea- ming? Whose broad:||watched were so|ga- llant- ly-|
w: ||||
 C,2 !fermata!C,2!p! C,>C, || C,2 C,2 B,,2 | C,3 B,, C,2 | D,2 D,2 C,2 | B,,3"^m"!f! z F,G, | %16
w: strea- ming. And the|ro- ckets' red|glare, the bombs|bur- sting in|air gave _|
w: |||||
 C,3 B,, A,,2 | G,,2 G,,2 G,,2 | C,2 C,2 D,2 | G,,3!f! z G,,2 | C,4 E,E, | F,2 E,2 ^C,2 | %22
w: proof through the|night that our|flag was still|there. Oh|say does that|star span- gled|
w: ||||||
 D,2 D,E, F,^F, | (!fermata!^F,2 !fermata!G,3/2)!ff! z/ G,,G,, | C,3 D, E,=F, | %25
w: ban- ner _ yet _|wave _ o'er the|land _ of the|
w: |||
 !fermata!G,3 z!fff! A,>_A, | G,3 G, !fermata!G,2 | !fermata![C,C]6 |] %28
w: free and the|home of the|brave?|
w: |||

